; generated by PrusaSlicer 2.5.2+win64 on 2023-05-03 at 12:58:22 UTC


;
;
; 

; external perimeters extrusion width = 0.45mm
; perimeters extrusion width = 0.45mm
; infill extrusion width = 0.45mm
; solid infill extrusion width = 0.45mm
; top infill extrusion width = 0.40mm
; first layer extrusion width = 0.42mm

M73 P0 R59
M73 Q0 S59
M201 X1000 Y1000 Z200 E5000 ; sets maximum accelerations, mm/sec^2
M203 X200 Y200 Z12 E120 ; sets maximum feedrates, mm / sec
M204 P1250 R1250 T1250 ; sets acceleration (P, T) and retract acceleration (R), mm/sec^2
M205 X8.00 Y8.00 Z0.40 E4.50 ; sets the jerk limits, mm/sec
M205 S0 T0 ; sets the minimum extruding and travel feed rate, mm/sec
M107
;TYPE:Custom
; M862.3 P "MK3S" ; printer model check
; M862.1 P0.4 ; nozzle diameter check
; M115 U3.11.0 ; tell printer latest fw version
G90 ; use absolute coordinates
M83 ; extruder relative mode
M104 S215 ; set extruder temp
M140 S60 ; set bed temp
M190 S60 ; wait for bed temp
M109 S215 ; wait for extruder temp
G28 W ; home all without mesh bed level
G80 ; mesh bed leveling

G1 Z0.2 F720
G1 Y-3 F1000 ; go outside print area
G92 E0
G1 X60 E9 F1000 ; intro line
G1 X100 E12.5 F1000 ; intro line

G92 E0
M221 S95

; Don't change E values below. Excessive value can damage the printer.
M907 E430 ; set extruder motor current
G21 ; set units to millimeters
G90 ; use absolute coordinates
M83 ; use relative distances for extrusion
M900 K0.05 ; Filament gcode LA 1.5
M900 K30 ; Filament gcode LA 1.0
M107
;LAYER_CHANGE
;Z:0.2
;HEIGHT:0.2
;BEFORE_LAYER_CHANGE
G92 E0.0
;0.2


G1 E-.8 F2100
G1 Z.4 F720
;AFTER_LAYER_CHANGE
;0.2
G1 X119.522 Y100.803 F10800
G1 Z.2 F720
G1 E.8 F2100
M204 S800
;TYPE:Skirt/Brim
;WIDTH:0.42
G1 F900
G1 X120.335 Y99.916 E.03771
G1 X121.288 Y99.183 E.03772
G1 X122.355 Y98.627 E.03771
G1 X122.93 Y98.417 E.01917
G1 X124.104 Y98.158 E.03771
G1 X125.555 Y98.128 E.04551
G1 X127.07 Y98.417 E.04837
G1 X128.182 Y98.877 E.03771
G1 X129.197 Y99.522 E.03771
G1 X130.084 Y100.334 E.03771
G1 X130.817 Y101.288 E.03772
G1 X131.373 Y102.355 E.03771
G1 X131.736 Y103.502 E.03771
G1 X131.864 Y104.354 E.02701
G1 X131.894 Y105.306 E.02987
G1 X131.736 Y106.498 E.03772
G1 X131.373 Y107.645 E.03771
G1 X130.817 Y108.712 E.03771
G1 X130.478 Y109.197 E.01858
G1 X129.665 Y110.084 E.03771
G1 X128.712 Y110.817 E.03772
G1 X127.645 Y111.373 E.03771
G1 X126.498 Y111.736 E.03771
G1 X125.896 Y111.842 E.01917
G1 X124.694 Y111.894 E.03771
G1 X123.502 Y111.736 E.03772
G1 X122.355 Y111.373 E.03771
G1 X121.288 Y110.817 E.03771
G1 X120.803 Y110.478 E.01858
G1 X119.916 Y109.665 E.03771
G1 X119.183 Y108.712 E.03772
G1 X118.627 Y107.645 E.03771
G1 X118.417 Y107.07 E.01917
G1 X118.158 Y105.896 E.03771
G1 X118.106 Y104.694 E.03771
G1 X118.264 Y103.502 E.03771
G1 X118.627 Y102.355 E.03771
G1 X118.877 Y101.818 E.01858
G1 X119.49 Y100.854 E.03583
M204 S1000
G1 X119.808 Y101.057 F10800
M204 S800
G1 F900
G1 X120.601 Y100.182 E.03702
G1 X121.977 Y99.219 E.05267
G1 X123.027 Y98.782 E.03566
G1 X124.137 Y98.533 E.03565
G1 X125.522 Y98.504 E.04345
G1 X126.973 Y98.782 E.04631
G1 X128.023 Y99.219 E.03566
G1 X128.981 Y99.831 E.03566
G1 X129.818 Y100.601 E.03566
G1 X130.508 Y101.505 E.03566
G1 X131.032 Y102.514 E.03566
G1 X131.372 Y103.599 E.03566
G1 X131.518 Y105.273 E.05267
G1 X131.372 Y106.401 E.03566
G1 X131.032 Y107.486 E.03566
G1 X130.508 Y108.495 E.03566
G1 X130.169 Y108.981 E.01858
G1 X129.399 Y109.818 E.03566
G1 X128.495 Y110.508 E.03566
G1 X127.486 Y111.032 E.03566
G1 X126.401 Y111.372 E.03566
G1 X124.727 Y111.518 E.05267
G1 X123.599 Y111.372 E.03566
G1 X122.514 Y111.032 E.03566
G1 X121.505 Y110.508 E.03566
G1 X121.019 Y110.169 E.01858
G1 X120.182 Y109.399 E.03566
G1 X119.492 Y108.495 E.03566
G1 X118.968 Y107.486 E.03566
G1 X118.533 Y105.863 E.05267
G1 X118.482 Y104.727 E.03566
G1 X118.628 Y103.599 E.03566
G1 X118.968 Y102.514 E.03566
G1 X119.219 Y101.977 E.01858
G1 X119.775 Y101.107 E.03239
M204 S1000
G1 X120.092 Y101.311 F10800
M204 S800
G1 F900
G1 X120.14 Y101.236 E.00281
G1 X120.868 Y100.449 E.0336
G1 X121.721 Y99.8 E.0336
G1 X123.125 Y99.146 E.04857
G1 X124.17 Y98.909 E.0336
G1 X125.49 Y98.879 E.04139
G1 X126.875 Y99.146 E.04425
G1 X127.863 Y99.56 E.0336
G1 X128.764 Y100.14 E.0336
G1 X129.551 Y100.868 E.0336
G1 X130.2 Y101.721 E.0336
G1 X130.69 Y102.674 E.0336
G1 X131.008 Y103.697 E.0336
G1 X131.143 Y105.24 E.04857
G1 X131.008 Y106.303 E.0336
G1 X130.69 Y107.326 E.0336
G1 X130.2 Y108.279 E.0336
G1 X129.86 Y108.764 E.01858
G1 X129.132 Y109.551 E.0336
G1 X128.279 Y110.2 E.0336
G1 X127.326 Y110.69 E.0336
G1 X126.303 Y111.008 E.0336
G1 X124.76 Y111.143 E.04857
G1 X123.697 Y111.008 E.0336
G1 X122.674 Y110.69 E.0336
G1 X121.721 Y110.2 E.0336
G1 X121.236 Y109.86 E.01858
G1 X120.449 Y109.132 E.0336
G1 X119.8 Y108.279 E.0336
G1 X119.31 Y107.326 E.0336
G1 X118.909 Y105.83 E.04857
G1 X118.857 Y104.76 E.0336
G1 X118.992 Y103.697 E.0336
G1 X119.31 Y102.674 E.0336
G1 X119.56 Y102.137 E.01858
G1 X120.059 Y101.361 E.02891
M204 S1000
G1 X120.375 Y101.566 F10800
M204 S800
G1 F900
G1 X120.449 Y101.452 E.00426
G1 X121.134 Y100.715 E.03154
G1 X121.937 Y100.109 E.03154
G1 X123.222 Y99.51 E.04446
G1 X124.203 Y99.285 E.03154
G1 X125.457 Y99.255 E.03933
G1 X126.778 Y99.51 E.04219
G1 X127.704 Y99.902 E.03154
G1 X128.548 Y100.449 E.03154
G1 X129.285 Y101.134 E.03154
G1 X129.891 Y101.937 E.03154
G1 X130.348 Y102.833 E.03154
G1 X130.715 Y104.203 E.04446
G1 X130.767 Y105.207 E.03154
G1 X130.643 Y106.205 E.03154
G1 X130.348 Y107.167 E.03154
G1 X130.098 Y107.704 E.01858
G1 X129.551 Y108.548 E.03154
G1 X128.866 Y109.285 E.03154
G1 X128.063 Y109.891 E.03154
G1 X127.167 Y110.348 E.03154
G1 X126.205 Y110.643 E.03154
G1 X124.793 Y110.767 E.04446
G1 X123.795 Y110.643 E.03154
G1 X122.833 Y110.348 E.03154
G1 X122.296 Y110.098 E.01858
G1 X121.452 Y109.551 E.03154
G1 X120.715 Y108.866 E.03154
G1 X120.109 Y108.063 E.03154
G1 X119.652 Y107.167 E.03154
G1 X119.285 Y105.797 E.04446
G1 X119.233 Y104.793 E.03154
G1 X119.422 Y103.553 E.03933
G1 X119.902 Y102.296 E.04219
G1 X120.343 Y101.616 E.02539
M204 S1000
; printing object sphere.stl id:0 copy 0
;WIPE_START
G1 F8640
G1 X120.449 Y101.452 E-.04525
G1 X121.134 Y100.715 E-.23226
G1 X121.937 Y100.109 E-.23226
G1 X122.919 Y99.651 E-.25023
;WIPE_END
G1 E-.04 F2100
G1 Z.6 F720
G1 X125.474 Y105.274 F10800
G1 Z.2 F720
G1 E.8 F2100
M204 S800
;TYPE:Perimeter
;WIDTH:0.419999
G1 F900
G1 X125.269 Y105.467 E.00882
G1 X125 Y105.547 E.00882
G1 X124.731 Y105.467 E.00882
G1 X124.526 Y105.274 E.00882
G1 X124.461 Y105 E.00882
G1 X124.526 Y104.726 E.00882
G1 X124.731 Y104.533 E.00882
G1 X125 Y104.453 E.00882
G1 X125.269 Y104.533 E.00882
G1 X125.474 Y104.726 E.00882
G1 X125.539 Y105 E.00882
G1 X125.488 Y105.215 E.00693
M204 S1000
G1 X125.805 Y105.465 F10800
M204 S800
;TYPE:External perimeter
G1 F900
G1 X125.598 Y105.712 E.01013
G1 X125.318 Y105.874 E.01013
G1 X125 Y105.93 E.01013
G1 X124.682 Y105.874 E.01013
G1 X124.402 Y105.712 E.01013
G1 X124.195 Y105.465 E.01013
G1 X124.084 Y105.161 E.01013
G1 X124.084 Y104.839 E.01013
G1 X124.195 Y104.535 E.01013
G1 X124.402 Y104.288 E.01013
G1 X124.682 Y104.126 E.01013
G1 X125 Y104.07 E.01013
G1 X125.318 Y104.126 E.01013
G1 X125.598 Y104.288 E.01013
G1 X125.805 Y104.535 E.01013
G1 X125.916 Y104.839 E.01013
G1 X125.916 Y105.161 E.01013
G1 X125.826 Y105.409 E.00825
M204 S1000
G1 X125.482 Y105.465 F10800
;WIPE_START
G1 F8640
G1 X125.598 Y105.712 E-.08773
G1 X125.318 Y105.874 E-.07458
G1 X125 Y105.93 E-.07458
G1 X124.682 Y105.874 E-.07458
G1 X124.402 Y105.712 E-.07458
G1 X124.195 Y105.465 E-.07458
G1 X124.084 Y105.161 E-.07458
G1 X124.084 Y104.839 E-.07458
G1 X124.195 Y104.535 E-.07458
G1 X124.402 Y104.288 E-.07458
G1 X124.406 Y104.285 E-.00106
;WIPE_END
G1 E-.04 F2100
G1 Z.6 F720
G1 X124.903 Y104.585 F10800
G1 Z.2 F720
G1 E.8 F2100
M204 S800
;TYPE:Solid infill
;WIDTH:0.492604
G1 F900
G1 X125.246 Y104.929 E.01817
G1 X125.256 Y105.045 E.00438
G1 X125.225 Y105.13 E.00338
G1 X125.167 Y105.199 E.00338
G1 X125.089 Y105.244 E.00338
G1 X125 Y105.26 E.00338
G1 X124.929 Y105.248 E.00268
G1 X124.583 Y104.901 E.01832
M204 S1000
; stop printing object sphere.stl id:0 copy 0
M106 S84.15
;LAYER_CHANGE
;Z:0.35
;HEIGHT:0.15
;BEFORE_LAYER_CHANGE
G92 E0.0
;0.35


;WIPE_START
G1 F8640
G1 X124.929 Y105.248 E-.11314
G1 X125 Y105.26 E-.01654
G1 X125.089 Y105.244 E-.02085
G1 X125.167 Y105.199 E-.02085
G1 X125.225 Y105.13 E-.02085
G1 X125.256 Y105.045 E-.02085
G1 X125.246 Y104.929 E-.02702
G1 X124.903 Y104.585 E-.11221
;WIPE_END
G1 E-.44771 F2100
G1 Z.6 F720
;AFTER_LAYER_CHANGE
;0.35
G1 X124.77 Y98.144 F10800
G1 Z.35 F720
G1 E.8 F2100
;TYPE:Skirt/Brim
;WIDTH:0.42
G1 F900
G1 X125.555 Y98.128 E.01898
G1 X127.07 Y98.417 E.03731
G1 X128.182 Y98.877 E.02909
G1 X129.197 Y99.522 E.02909
G1 X130.084 Y100.334 E.02909
G1 X130.817 Y101.288 E.02909
G1 X131.373 Y102.355 E.02909
G1 X131.736 Y103.502 E.02909
G1 X131.864 Y104.354 E.02083
G1 X131.894 Y105.306 E.02304
G1 X131.736 Y106.498 E.02909
G1 X131.373 Y107.645 E.02909
G1 X130.817 Y108.712 E.02909
G1 X130.478 Y109.197 E.01433
G1 X129.665 Y110.084 E.02909
G1 X128.712 Y110.817 E.02909
G1 X127.645 Y111.373 E.02909
G1 X126.498 Y111.736 E.02909
G1 X125.896 Y111.842 E.01479
G1 X124.694 Y111.894 E.02909
G1 X123.502 Y111.736 E.02909
G1 X122.355 Y111.373 E.02909
G1 X121.288 Y110.817 E.02909
G1 X120.803 Y110.478 E.01433
G1 X119.916 Y109.665 E.02909
G1 X119.183 Y108.712 E.02909
G1 X118.627 Y107.645 E.02909
G1 X118.417 Y107.07 E.01479
G1 X118.158 Y105.896 E.02909
G1 X118.106 Y104.694 E.02909
G1 X118.264 Y103.502 E.02909
G1 X118.627 Y102.355 E.02909
G1 X118.877 Y101.818 E.01433
G1 X119.522 Y100.803 E.02909
G1 X120.335 Y99.916 E.02909
G1 X121.288 Y99.183 E.02909
G1 X122.355 Y98.627 E.02909
G1 X122.93 Y98.417 E.01479
G1 X124.104 Y98.158 E.02909
G1 X124.71 Y98.145 E.01467
G1 X124.719 Y98.521 F10800
G1 F900
G1 X125.522 Y98.504 E.01944
G1 X126.973 Y98.782 E.03572
G1 X128.023 Y99.219 E.0275
G1 X128.981 Y99.831 E.0275
G1 X129.818 Y100.601 E.0275
G1 X130.508 Y101.505 E.0275
G1 X131.032 Y102.514 E.0275
G1 X131.372 Y103.599 E.0275
G1 X131.518 Y105.273 E.04063
G1 X131.372 Y106.401 E.0275
G1 X131.032 Y107.486 E.0275
G1 X130.508 Y108.495 E.0275
G1 X130.169 Y108.981 E.01433
G1 X129.399 Y109.818 E.0275
G1 X128.495 Y110.508 E.0275
G1 X127.486 Y111.032 E.0275
G1 X126.401 Y111.372 E.0275
G1 X124.727 Y111.518 E.04063
G1 X123.599 Y111.372 E.0275
G1 X122.514 Y111.032 E.0275
G1 X121.505 Y110.508 E.0275
G1 X121.019 Y110.169 E.01433
G1 X120.182 Y109.399 E.0275
G1 X119.492 Y108.495 E.0275
G1 X118.968 Y107.486 E.0275
G1 X118.533 Y105.863 E.04063
G1 X118.482 Y104.727 E.0275
G1 X118.628 Y103.599 E.0275
G1 X118.968 Y102.514 E.0275
G1 X119.219 Y101.977 E.01433
G1 X119.831 Y101.019 E.0275
G1 X120.601 Y100.182 E.0275
G1 X121.977 Y99.219 E.04063
G1 X123.027 Y98.782 E.0275
G1 X124.137 Y98.533 E.0275
G1 X124.659 Y98.522 E.01262
G1 X124.667 Y98.898 F10800
G1 F900
G1 X125.49 Y98.879 E.0199
G1 X126.875 Y99.146 E.03413
G1 X127.863 Y99.56 E.02591
G1 X128.764 Y100.14 E.02591
G1 X129.551 Y100.868 E.02591
G1 X130.2 Y101.721 E.02592
G1 X130.69 Y102.674 E.02591
G1 X131.008 Y103.697 E.02591
G1 X131.143 Y105.24 E.03746
G1 X131.008 Y106.303 E.02592
G1 X130.69 Y107.326 E.02591
G1 X130.2 Y108.279 E.02591
G1 X129.86 Y108.764 E.01433
G1 X129.132 Y109.551 E.02591
G1 X128.279 Y110.2 E.02592
G1 X127.326 Y110.69 E.02591
G1 X126.303 Y111.008 E.02591
G1 X124.76 Y111.143 E.03746
G1 X123.697 Y111.008 E.02592
G1 X122.674 Y110.69 E.02591
G1 X121.721 Y110.2 E.02591
G1 X121.236 Y109.86 E.01433
G1 X120.449 Y109.132 E.02591
G1 X119.8 Y108.279 E.02592
G1 X119.31 Y107.326 E.02591
G1 X118.909 Y105.83 E.03746
G1 X118.857 Y104.76 E.02592
G1 X118.992 Y103.697 E.02592
G1 X119.31 Y102.674 E.02591
G1 X119.56 Y102.137 E.01433
G1 X120.14 Y101.236 E.02592
G1 X120.868 Y100.449 E.02591
G1 X121.721 Y99.8 E.02592
G1 X123.125 Y99.146 E.03746
G1 X124.17 Y98.909 E.02591
G1 X124.607 Y98.899 E.01058
G1 X124.616 Y99.275 F10800
G1 F900
G1 X125.457 Y99.255 E.02034
G1 X126.778 Y99.51 E.03254
G1 X127.704 Y99.902 E.02433
G1 X128.548 Y100.449 E.02433
G1 X129.285 Y101.134 E.02433
G1 X129.891 Y101.937 E.02433
G1 X130.348 Y102.833 E.02433
G1 X130.715 Y104.203 E.03429
G1 X130.767 Y105.207 E.02433
G1 X130.643 Y106.205 E.02433
G1 X130.348 Y107.167 E.02433
G1 X130.098 Y107.704 E.01433
G1 X129.551 Y108.548 E.02433
G1 X128.866 Y109.285 E.02433
G1 X128.063 Y109.891 E.02433
G1 X127.167 Y110.348 E.02433
G1 X126.205 Y110.643 E.02433
G1 X124.793 Y110.767 E.03429
G1 X123.795 Y110.643 E.02433
G1 X122.833 Y110.348 E.02433
G1 X122.296 Y110.098 E.01433
G1 X121.452 Y109.551 E.02433
G1 X120.715 Y108.866 E.02433
G1 X120.109 Y108.063 E.02433
G1 X119.652 Y107.167 E.02433
G1 X119.285 Y105.797 E.03429
G1 X119.233 Y104.793 E.02433
G1 X119.422 Y103.553 E.03034
G1 X119.902 Y102.296 E.03254
G1 X120.449 Y101.452 E.02433
G1 X121.134 Y100.715 E.02433
G1 X121.937 Y100.109 E.02433
G1 X123.222 Y99.51 E.03429
G1 X124.203 Y99.285 E.02433
G1 X124.556 Y99.276 E.00855
; printing object sphere.stl id:0 copy 0
;WIPE_START
G1 F8640
G1 X125.457 Y99.255 E-.20802
G1 X126.778 Y99.51 E-.31067
G1 X127.704 Y99.902 E-.23226
G1 X127.737 Y99.923 E-.00905
;WIPE_END
G1 E-.04 F2100
G1 Z.75 F720
G1 X126.797 Y106.244 F10800
G1 Z.35 F720
G1 E.8 F2100
;TYPE:Overhang perimeter
;WIDTH:0.449999
G1 F1500
G1 X126.684 Y106.406 E.00514
G1 X126.241 Y106.799 E.01542
G1 X125.75 Y107.061 E.01451
G1 X125.189 Y107.177 E.01493
G1 X124.619 Y107.16 E.01486
G1 X124.066 Y106.976 E.01519
G1 X123.594 Y106.684 E.01446
G1 X123.293 Y106.372 E.01131
G1 X123.017 Y105.919 E.0138
G1 X122.84 Y105.381 E.01477
G1 X122.823 Y104.809 E.01492
G1 X122.939 Y104.25 E.01487
G1 X123.211 Y103.745 E.01493
G1 X123.59 Y103.319 E.01486
G1 X124.087 Y103.015 E.01519
G1 X124.614 Y102.841 E.01446
G1 X125.205 Y102.824 E.01542
G1 X125.75 Y102.939 E.01451
G1 X126.255 Y103.211 E.01493
G1 X126.681 Y103.59 E.01486
G1 X126.981 Y104.077 E.01491
G1 X127.16 Y104.619 E.01488
G1 X127.177 Y105.193 E.01495
G1 X127.061 Y105.75 E.01484
G1 X126.825 Y106.191 E.01304
G1 X127.158 Y106.451 F10800
G1 F1500
G1 X127.003 Y106.678 E.00716
G1 X126.777 Y106.897 E.0082
G1 X126.307 Y107.263 E.01553
G1 X125.894 Y107.456 E.01187
G1 X125.454 Y107.573 E.01187
G1 X125 Y107.613 E.01187
G1 X124.546 Y107.573 E.01187
G1 X124.106 Y107.456 E.01187
G1 X123.693 Y107.263 E.01187
G1 X123.322 Y107.003 E.01182
G1 X123.103 Y106.777 E.0082
G1 X122.737 Y106.307 E.01553
G1 X122.544 Y105.894 E.01187
G1 X122.427 Y105.454 E.01187
G1 X122.387 Y105 E.01187
G1 X122.427 Y104.546 E.01187
G1 X122.544 Y104.106 E.01187
G1 X122.737 Y103.693 E.01187
G1 X122.998 Y103.32 E.01187
G1 X123.32 Y102.998 E.01187
G1 X123.693 Y102.737 E.01187
G1 X124.106 Y102.544 E.01187
G1 X124.544 Y102.427 E.01182
G1 X125.05 Y102.391 E.01321
G1 X125.659 Y102.482 E.01604
G1 X126.096 Y102.639 E.01209
G1 X126.491 Y102.866 E.01189
G1 X126.84 Y103.158 E.01185
G1 X127.132 Y103.506 E.01184
G1 X127.359 Y103.899 E.01183
G1 X127.514 Y104.326 E.01182
G1 X127.593 Y104.772 E.01182
G1 X127.593 Y105.226 E.01181
G1 X127.515 Y105.672 E.0118
G1 X127.361 Y106.097 E.01177
G1 X127.187 Y106.399 E.00909
G1 X126.956 Y105.658 F10800
;TYPE:Bridge infill
;WIDTH:0.49451
G1 F1500
G1 X126.098 Y106.517 E.03502
G1 X125.94 Y106.627 E.00556
G1 X125.643 Y106.766 E.00944
G1 X125.326 Y106.851 E.00944
G1 X125.089 Y106.871 E.00686
G1 X126.871 Y105.089 E.07267
G1 X126.851 Y104.674 E.01199
G1 X126.805 Y104.502 E.00512
G1 X124.502 Y106.805 E.09389
G1 X124.357 Y106.766 E.00432
G1 X124.04 Y106.613 E.01016
G1 X126.613 Y104.04 E.10492
G1 X126.44 Y103.792 E.00872
M73 P0 R58
G1 X126.323 Y103.676 E.00474
G1 X123.679 Y106.32 E.10783
G1 X123.535 Y106.172 E.00596
G1 X123.386 Y105.959 E.00748
G1 X125.959 Y103.386 E.10491
G1 X125.643 Y103.234 E.01012
G1 X125.497 Y103.195 E.00436
G1 X123.195 Y105.497 E.09385
G1 X123.149 Y105.326 E.00508
G1 X123.129 Y104.909 E.01205
G1 X124.903 Y103.135 E.07235
G1 X124.666 Y103.151 E.00686
G1 X124.357 Y103.234 E.00921
G1 X124.06 Y103.373 E.00944
G1 X123.897 Y103.487 E.00576
G1 X123.044 Y104.34 E.03477
; stop printing object sphere.stl id:0 copy 0
M106 S170.85
;LAYER_CHANGE
;Z:0.5
;HEIGHT:0.15
;BEFORE_LAYER_CHANGE
G92 E0.0
;0.5


;WIPE_START
